!!!OTL: Graf und Nonne (Die Nonne) Ich stand auf hohem Berge
!!!ARE: Europa, Osteuropa, Ungarn, Batschka, Ujfutak
!!!YOR: 8, S. 89
!!    1940 aufgezeichnet
!!!SCT: Q0155e
!!!YEM: Copyright 1995, estate of Helmut Schaffrath.
**kern
*ICvox
*Ivox
*M6/8
*k[b-]
*d:
{8d
=1
4fn
8fn
8g
8fn
8e
=2
4.fn
4d}
{16fn
16g
=3
4a
8g
4a
8g
=4
4.a
4r}
{8a
=5
8dd
8dd
8ccn
8b-
8a
8g
=6
4.a
4fn}
{8fn
=7
8e
8e
8e
4a
8a
=8
4.d
4r}
==
!!!AGN: Ballade, Standesunterschied, vergebliche Werbung, Liebe, Klage, Tod
!!!ONB: ESAC (Essen Associative Code) Database: BALLADE
!!!AMT: compound duple
!!!AIN: vox
!!!EED: Helmut Schaffrath
!!!EEV: 1.0
*-
